build/images/icons/advantages-6.svg

<svg width="40" height="40" viewBox="0 0 40 40" fill="none" xmlns="http://www.w3.org/2000/svg">
<g clip-path="url(#clip0)">
<path d="M6.64626 35.5414C6.50103 35.396 6.29946 35.3125 6.09399 35.3125C5.88853 35.3125 5.68696 35.396 5.54165 35.5414C5.39634 35.6868 5.31274 35.8883 5.31274 36.0938C5.31274 36.2992 5.39626 36.5008 5.54165 36.646C5.68696 36.7913 5.88853 36.875 6.09399 36.875C6.29946 36.875 6.50103 36.7914 6.64626 36.646C6.79157 36.5008 6.87524 36.2992 6.87524 36.0938C6.87524 35.8883 6.79165 35.6867 6.64626 35.5414Z" fill="#EAC57E"/>
<path d="M36.6815 14.2919C36.5362 14.1465 36.3354 14.063 36.1291 14.063C35.9237 14.063 35.7221 14.1465 35.5768 14.2919C35.4316 14.4372 35.3479 14.6388 35.3479 14.8442C35.3479 15.0497 35.4315 15.2513 35.5768 15.3965C35.7221 15.5418 35.9237 15.6255 36.1291 15.6255C36.3354 15.6255 36.5362 15.5419 36.6815 15.3965C36.8275 15.2513 36.9111 15.0497 36.9111 14.8442C36.9111 14.6388 36.8275 14.4372 36.6815 14.2919Z" fill="#EAC57E"/>
<path d="M39.7706 0.228828C39.6241 0.0823437 39.4253 0 39.2181 0L19.9998 0.00101562C19.5684 0.00101562 19.2186 0.350859 19.2186 0.782266V3.01641L11.8132 5.0007C11.3964 5.11242 11.1491 5.54078 11.2608 5.9575L15.0988 20.2811L11.7786 23.6013C11.356 22.9843 10.6465 22.5785 9.84392 22.5785H2.34416C1.05182 22.5785 0.000488281 23.6299 0.000488281 24.9222V37.6562C0.000488281 38.9486 1.05182 40 2.34416 40H9.844C10.9419 40 11.8655 39.2409 12.1186 38.2203L13.0475 39.0304C13.7646 39.6557 14.6834 40.0001 15.6349 40.0001H39.2182C39.6496 40.0001 39.9995 39.6502 39.9995 39.2188V0.78125C39.9993 0.574063 39.9171 0.375313 39.7706 0.228828ZM10.6251 37.6563C10.6251 38.087 10.2746 38.4376 9.84385 38.4376H2.34408C1.9133 38.4376 1.56283 38.0871 1.56283 37.6563V24.9223C1.56283 24.4915 1.9133 24.141 2.34408 24.141H5.31275V33.1406C5.31275 33.572 5.6626 33.9219 6.094 33.9219C6.52541 33.9219 6.87525 33.572 6.87525 33.1406V24.141H9.84392C10.2747 24.141 10.6252 24.4915 10.6252 24.9223V37.6563H10.6251ZM12.9722 6.30773L19.2186 4.63398V7.52891L18.695 7.66922C18.4948 7.72289 18.3242 7.85375 18.2206 8.0332C18.1171 8.21266 18.0889 8.42586 18.1426 8.62602C18.4428 9.74641 17.7756 10.9021 16.6552 11.2023C16.4548 11.2561 16.2839 11.3872 16.1804 11.567C16.0769 11.7468 16.049 11.9604 16.1031 12.1607L19.1484 23.4371H17.5804L16.7724 20.2759C16.7467 20.1752 16.7017 20.0825 16.6414 20.0019L12.9722 6.30773ZM19.2186 11.1116V17.7039L17.7937 12.4277C18.3889 12.1204 18.876 11.6605 19.2186 11.1116ZM30.4424 38.4375H15.6347C15.0609 38.4375 14.5067 38.2298 14.0742 37.8527L12.1876 36.2073V25.4021L15.5984 21.9913L16.217 24.4116C16.3054 24.7575 16.6169 24.9994 16.9738 24.9994L32.3335 25.0003C32.9367 25.0003 33.4273 25.4909 33.4273 26.0941C33.4273 26.6972 32.9367 27.1878 32.3335 27.1878H24.4632C24.0318 27.1878 23.682 27.5377 23.682 27.9691C23.682 28.4005 24.0318 28.7503 24.4632 28.7503H34.7788C35.382 28.7503 35.8726 29.2409 35.8726 29.8441C35.8726 30.4472 35.382 30.9378 34.7788 30.9378H24.4632C24.0318 30.9378 23.682 31.2877 23.682 31.7191C23.682 32.1505 24.0318 32.5003 24.4632 32.5003H33.1072C33.7103 32.5003 34.201 32.9909 34.201 33.5941C34.201 34.1972 33.7103 34.6878 33.1072 34.6878H24.4632C24.0318 34.6878 23.682 35.0377 23.682 35.4691C23.682 35.9005 24.0318 36.2503 24.4632 36.2503H30.4424C31.0455 36.2503 31.5361 36.7409 31.5361 37.3441C31.536 37.9469 31.0454 38.4375 30.4424 38.4375ZM38.437 38.4375H38.4369H32.862C33.0135 38.1037 33.0985 37.7336 33.0985 37.3438C33.0985 36.9539 33.0135 36.5838 32.862 36.25H33.1072C34.5718 36.25 35.7634 35.0584 35.7634 33.5938C35.7634 33.1666 35.6614 32.763 35.4814 32.405C36.6061 32.0961 37.4349 31.0652 37.4349 29.8439C37.4349 29.2514 37.2398 28.7037 36.9106 28.2615V18.3599C36.9106 17.9285 36.5608 17.5787 36.1294 17.5787C35.698 17.5787 35.3481 17.9285 35.3481 18.3599V27.2499C35.1645 27.2097 34.9742 27.1878 34.7787 27.1878H34.7531C34.9045 26.854 34.9896 26.4839 34.9896 26.0941C34.9896 24.6294 33.7981 23.4379 32.3335 23.4379H31.0776C32.4111 22.866 33.3477 21.5405 33.3477 20C33.3477 17.9384 31.6705 16.2611 29.6088 16.2611C27.5473 16.2611 25.87 17.9384 25.87 20C25.87 21.5405 26.8067 22.866 28.1401 23.4379H23.8696V8.58305C25.2652 8.27891 26.3664 7.17773 26.6705 5.78203H32.5471C32.8512 7.17773 33.9524 8.27891 35.3481 8.58305V11.012C35.3481 11.4434 35.6979 11.7932 36.1293 11.7932C36.5607 11.7932 36.9106 11.4434 36.9106 11.012V7.88555C36.9106 7.45414 36.5607 7.1043 36.1293 7.1043C34.9694 7.1043 34.0259 6.16062 34.0259 5.00078C34.0259 4.56938 33.676 4.21953 33.2446 4.21953H25.9731C25.5417 4.21953 25.1918 4.56938 25.1918 5.00078C25.1918 6.1607 24.2482 7.1043 23.0884 7.1043C22.657 7.1043 22.3071 7.45414 22.3071 7.88555V23.4378H20.7812V1.56336L38.437 1.5625V38.4375ZM29.609 22.1764C28.4089 22.1764 27.4327 21.2001 27.4327 20.0001C27.4327 18.8001 28.409 17.8237 29.609 17.8237C30.809 17.8237 31.7853 18.8 31.7853 20C31.7853 21.2 30.8091 22.1764 29.609 22.1764Z" fill="#EAC57E"/>
</g>
<defs>
<clipPath id="clip0">
<rect width="40" height="40" fill="white"/>
</clipPath>
</defs>
</svg>

<svg width="40" height="40" fill="none" xmlns="http://www.w3.org/2000/svg"><g clip-path="url(#clip0)" fill="#EAC57E"><path d="M6.646 35.541a.786.786 0 00-.552-.228.787.787 0 00-.552.228.787.787 0 00-.23.553.787.787 0 00.781.781.787.787 0 00.553-.229.787.787 0 00.23-.552.787.787 0 00-.23-.553zM36.681 14.292a.785.785 0 00-.552-.229.787.787 0 00-.552.229.788.788 0 00-.23.552.787.787 0 00.781.781.786.786 0 00.783-.78.785.785 0 00-.23-.553z"/><path d="M39.77.229A.782.782 0 0039.219 0L20 .001a.781.781 0 00-.781.781v2.234l-7.406 1.985a.781.781 0 00-.552.956l3.838 14.324-3.32 3.32a2.343 2.343 0 00-1.935-1.023h-7.5A2.346 2.346 0 000 24.922v12.734A2.346 2.346 0 002.344 40h7.5c1.098 0 2.022-.76 2.275-1.78l.928.81c.718.626 1.636.97 2.588.97h23.583c.432 0 .781-.35.781-.781V.78a.782.782 0 00-.228-.552zM10.626 37.656c0 .431-.35.782-.781.782h-7.5a.782.782 0 01-.781-.782V24.922c0-.43.35-.781.781-.781h2.969v9a.781.781 0 001.562 0v-9h2.969c.43 0 .781.35.781.781v12.734zm2.347-31.348l6.247-1.674v2.895l-.524.14a.781.781 0 00-.552.957 2.106 2.106 0 01-1.488 2.576.781.781 0 00-.552.959l3.045 11.276H17.58l-.808-3.161a.778.778 0 00-.13-.274l-3.67-13.694zm6.247 4.804v6.592l-1.425-5.276a3.66 3.66 0 001.425-1.316zm11.223 27.325H15.635a2.374 2.374 0 01-1.56-.584l-1.887-1.646V25.402l3.41-3.41.619 2.42c.088.346.4.587.757.587l15.36.001a1.095 1.095 0 010 2.188h-7.87a.781.781 0 000 1.562h10.315a1.095 1.095 0 010 2.188H24.463a.781.781 0 000 1.562h8.644a1.095 1.095 0 010 2.188h-8.644a.781.781 0 000 1.562h5.98c.602 0 1.093.49 1.093 1.094 0 .603-.49 1.093-1.094 1.093zm7.995 0h-5.575a2.64 2.64 0 000-2.187h.245a2.66 2.66 0 002.656-2.656c0-.427-.102-.831-.282-1.189a2.66 2.66 0 001.954-2.561c0-.593-.195-1.14-.524-1.582V18.36a.781.781 0 00-1.563 0v8.89a2.658 2.658 0 00-.57-.062h-.025a2.66 2.66 0 00-2.42-3.75h-1.255A3.744 3.744 0 0033.348 20a3.743 3.743 0 00-3.74-3.739A3.743 3.743 0 0025.87 20c0 1.54.937 2.866 2.27 3.438h-4.27V8.583a3.678 3.678 0 002.8-2.801h5.877a3.678 3.678 0 002.801 2.801v2.429a.781.781 0 001.563 0V7.886a.781.781 0 00-.782-.782 2.106 2.106 0 01-2.103-2.103.781.781 0 00-.781-.781h-7.272a.781.781 0 00-.781.78c0 1.16-.944 2.104-2.104 2.104a.781.781 0 00-.78.782v15.552H20.78V1.563h17.656v36.874zm-8.828-16.26c-1.2 0-2.176-.977-2.176-2.177 0-1.2.976-2.176 2.176-2.176 1.2 0 2.176.976 2.176 2.176 0 1.2-.976 2.176-2.176 2.176z"/></g><defs><clipPath id="clip0"><path fill="#fff" d="M0 0h40v40H0z"/></clipPath></defs></svg>
